X:78
M:6/8
L:1/8
Q:3/8=100
K:G
|:d|ece gfe|dBG GBd|cBc A2 G|FGA D2 [cC]|\
[BB,]DG Bd=F|E2 ^F G2 c|Bec BcA|G3 G2:|

